sources/resources/icons/16/shape/octogon-filled.svg

<svg width="16" height="16" viewBox="0 0 16 16" fill="none" xmlns="http://www.w3.org/2000/svg">
<path fill-rule="evenodd" clip-rule="evenodd" d="M5.92457 0.000312196C5.6281 -0.000121249 5.32947 -0.000557914 5.03784 0.0694554C4.78275 0.130697 4.53889 0.231708 4.31521 0.36878C4.05949 0.525483 3.84864 0.736952 3.63931 0.946894L0.946652 3.63955C0.736709 3.84888 0.525239 4.05974 0.368536 4.31545C0.231464 4.53913 0.130453 4.783 0.0692112 5.03809C-0.000802055 5.32971 -0.00036539 5.62834 6.80551e-05 5.92481V10.0759C-0.00036539 10.3724 -0.000802055 10.671 0.0692112 10.9627C0.130453 11.2178 0.231464 11.4616 0.368536 11.6853C0.52524 11.941 0.73671 12.1519 0.946653 12.3612L3.63931 15.0539C3.84863 15.2638 4.05949 15.4753 4.31521 15.632C4.53889 15.7691 4.78275 15.8701 5.03784 15.9313C5.32946 16.0013 5.62807 16.0009 5.92453 16.0004H10.0757C10.3722 16.0009 10.6708 16.0013 10.9624 15.9313C11.2175 15.8701 11.4614 15.7691 11.6851 15.632C11.9408 15.4753 12.1516 15.2638 12.361 15.0539L15.0536 12.3612C15.2636 12.1519 15.475 11.941 15.6317 11.6853C15.7688 11.4616 15.8698 11.2178 15.9311 10.9627C16.0011 10.6711 16.0006 10.3725 16.0002 10.076V5.92481C16.0006 5.62836 16.0011 5.32969 15.9311 5.03809C15.8698 4.783 15.7688 4.53913 15.6317 4.31545C15.475 4.05974 15.2636 3.84889 15.0536 3.63956L12.361 0.946903C12.1516 0.736957 11.9408 0.525485 11.6851 0.36878C11.4614 0.231708 11.2175 0.130697 10.9624 0.0694554C10.6708 -0.000557914 10.3722 -0.000121249 10.0757 0.000312196H5.92457Z" fill="white"/>
</svg>

<svg fill="none" viewBox="0 0 16 16" xmlns="http://www.w3.org/2000/svg"><path d="m5.92 3.12e-4c-0.296-4.33e-4 -0.595-8.7e-4 -0.887 0.0691-0.255 0.0612-0.499 0.162-0.723 0.299-0.256 0.157-0.467 0.368-0.676 0.578l-2.69 2.69c-0.21 0.209-0.421 0.42-0.578 0.676-0.137 0.224-0.238 0.468-0.299 0.723-0.07 0.292-0.0696 0.59-0.0691 0.887v4.15c-4.33e-4 0.296-8.7e-4 0.595 0.0691 0.887 0.0612 0.255 0.162 0.499 0.299 0.723 0.157 0.256 0.368 0.467 0.578 0.676l2.69 2.69c0.209 0.21 0.42 0.421 0.676 0.578 0.224 0.137 0.468 0.238 0.723 0.299 0.292 0.07 0.59 0.0696 0.887 0.0691h4.15c0.296 5e-4 0.595 9e-4 0.887-0.0691 0.255-0.0612 0.499-0.162 0.723-0.299 0.256-0.157 0.466-0.368 0.676-0.578l2.69-2.69c0.21-0.209 0.421-0.42 0.578-0.676 0.137-0.224 0.238-0.468 0.299-0.723 0.07-0.292 0.0695-0.59 0.0691-0.887v-4.15c4e-4 -0.296 9e-4 -0.595-0.0691-0.887-0.0613-0.255-0.162-0.499-0.299-0.723-0.157-0.256-0.368-0.467-0.578-0.676l-2.69-2.69c-0.209-0.21-0.42-0.421-0.676-0.578-0.224-0.137-0.468-0.238-0.723-0.299-0.292-0.07-0.59-0.0696-0.887-0.0691h-4.15z" clip-rule="evenodd" fill="#000" fill-rule="evenodd"/></svg>
